X: 120
T: Old Melinda
B: canberra pickers and fiddlers
B: old time tunes update
B: tunes
M:2/4
L:1/8
R: Breakdown
Q: 1/4=100
K:C
V:1 
G,B, | "C"CDEF EDCD | "Am"E2G2 A2c2 | "C"E2EF EDCD | "G"ECDC "C"A,B,CD |
       "C"E2EF EDCD | "Am"E2G2 ABcd | "C"e2dc ABcA | "G"GEDC "C"A,C3 :|
|: "C"eg3^f g2ag | egab aged | eg3a geag | "G"e2[d2e] "C"[c2e][d2e] |
   "C"eg3^f g2ag | egab aged | eg3a geag | "G"e2[d2e] "C"[c2e] z2 :|
"C"{d}[e2e][e2e] [ee][de][ce][de] | [e2e][e2e] [d2e][ce][de] | [e2e][e2e] [e2e]dc | "G"A2G2 "C"E2G2 |
"C"[e2e][e2e] [ee][de][ce][de] | [e2e][e2e] "(F)"[d2e][ce][de] | e2dc ABcA | "G"GEDC "C"A,C3 :|]
% abcbook-tune_id 67a7d9ecb8a1526782456fee
% abcbook-tune_composer_id 
% abcbook-link-0 https://www.youtube.com/watch?v=Xv7wu3cLSkg
% abcbook-link-title-0 Old Melinda
% abcbook-boost 0
% abcbook-difficulty 0
% abcbook-tags old time tunes
% abcbook-tablature 
% abcbook-transpose 
% abcbook-tuning GDAE
% abcbook-lastupdated 1739214508774
% abcbook-src-url 
% abcbook-soundfonts 
% abcbook-repeats 1


